Numix/16x16/categories/applications-biology.svg

<?xml version="1.0" encoding="UTF-8" standalone="no"?>
<svg
   xmlns:dc="http://purl.org/dc/elements/1.1/"
   xmlns:cc="http://creativecommons.org/ns#"
   xmlns:rdf="http://www.w3.org/1999/02/22-rdf-syntax-ns#"
   xmlns:svg="http://www.w3.org/2000/svg"
   xmlns="http://www.w3.org/2000/svg"
   xmlns:sodipodi="http://sodipodi.sourceforge.net/DTD/sodipodi-0.dtd"
   xmlns:inkscape="http://www.inkscape.org/namespaces/inkscape"
   width="16"
   height="16"
   viewBox="0 0 16 16"
   id="svg2"
   version="1.1"
   inkscape:version="0.91 r"
   sodipodi:docname="applications-biology.svg">
  <metadata
     id="metadata40">
    <rdf:RDF>
      <cc:Work
         rdf:about="">
        <dc:format>image/svg+xml</dc:format>
        <dc:type
           rdf:resource="http://purl.org/dc/dcmitype/StillImage" />
      </cc:Work>
    </rdf:RDF>
  </metadata>
  <defs
     id="defs38" />
  <sodipodi:namedview
     pagecolor="#ffffff"
     bordercolor="#666666"
     borderopacity="1"
     objecttolerance="10"
     gridtolerance="10"
     guidetolerance="10"
     inkscape:pageopacity="0"
     inkscape:pageshadow="2"
     inkscape:window-width="1920"
     inkscape:window-height="1056"
     id="namedview36"
     showgrid="false"
     inkscape:zoom="14.75"
     inkscape:cx="8"
     inkscape:cy="8"
     inkscape:window-x="0"
     inkscape:window-y="24"
     inkscape:window-maximized="1"
     inkscape:current-layer="svg2" />
  <g
     style="fill:#d68b85;stroke:#d68b85;stroke-width:0.99954689"
     id="g4"
     transform="matrix(1.0004034,0,0,1.0005033,0.08054931,0.07862932)">
    <path
       style="stroke-width:0.30985954"
       d="m 110.75813,199.20581 c 0.81913,-1.11377 0.5851,-2.63787 -0.52659,-3.39993 L 71.32263,167.90305 c -1.053174,-0.82067 -2.632934,-0.58619 -3.393559,0.52758 -0.760626,1.11376 -0.526587,2.63787 0.585096,3.39992 l 38.908913,27.90283 c 1.05317,0.82067 2.57442,0.5862 3.33505,-0.52757 z"
       transform="matrix(0.06676,0,0,0.06664,-2.44527,-0.20036)"
       id="path6"
       inkscape:connector-curvature="0" />
    <path
       style="stroke-width:0.30086359"
       d="m 104.90717,182.32342 c 0.99466,-0.93791 1.11168,-2.40339 0.23403,-3.3413 l -31.068617,-32.9441 c -0.877644,-0.93791 -2.340386,-0.93791 -3.335049,0 -0.994664,0.87929 -1.053174,2.40339 -0.175529,3.3413 l 31.010105,32.9441 c 0.87765,0.93791 2.3989,0.93791 3.33506,0 z"
       transform="matrix(0.06676,0,0,0.06664,-2.44527,-0.20036)"
       id="path8"
       inkscape:connector-curvature="0" />
    <path
       style="stroke-width:0.30985954"
       d="m 195.77264,99.611455 c 0.99466,-0.93791 0.99466,-2.462015 0,-3.399925 L 161.95407,62.329519 c -0.99467,-0.93791 -2.51592,-0.93791 -3.45207,0 -0.93616,0.937911 -0.93616,2.520634 0,3.458545 l 33.87708,33.823391 c 0.93615,0.996535 2.4574,0.996535 3.39356,0 z"
       transform="matrix(0.06676,0,0,0.06664,-2.44527,-0.20036)"
       id="path10"
       inkscape:connector-curvature="0" />
    <path
       style="stroke-width:0.30386221"
       d="m 193.84182,116.90418 c 0.99466,-0.87929 1.05317,-2.4034 0.17553,-3.39993 L 162.42214,79.973957 c -0.87764,-0.93791 -2.34038,-0.93791 -3.39356,0 -0.93615,0.879291 -0.99466,2.403396 -0.11702,3.341306 l 31.59521,33.588917 c 0.87765,0.93791 2.34039,0.93791 3.33505,0 z"
       transform="matrix(0.06676,0,0,0.06664,-2.44527,-0.20036)"
       id="path12"
       inkscape:connector-curvature="0" />
    <path
       style="stroke-width:0.24888717"
       d="m 176.87402,119.36619 c 1.1702,-0.70343 1.69678,-1.87582 1.22871,-2.63787 L 161.36897,90.759926 c -0.40957,-0.703433 -1.75529,-0.703433 -2.86697,0 -1.1702,0.762052 -1.69678,1.93444 -1.22871,2.637873 l 16.73376,25.968391 c 0.46808,0.76205 1.75529,0.76205 2.86697,0 z"
       transform="matrix(0.06676,0,0,0.06664,-2.44527,-0.20036)"
       id="path14"
       inkscape:connector-curvature="0" />
    <path
       style="stroke-width:0.29486629"
       d="m 166.16676,140.87951 c 0.93615,-0.99653 1.05317,-2.46202 0.17553,-3.28269 L 135.74175,106.9975 c -0.81914,-0.87929 -2.34039,-0.82067 -3.27654,0.17586 -0.93616,0.93791 -1.05318,2.40339 -0.17553,3.28268 l 30.60054,30.59933 c 0.87764,0.82067 2.34039,0.76205 3.27654,-0.17586 z"
       transform="matrix(0.06676,0,0,0.06664,-2.44527,-0.20036)"
       id="path16"
       inkscape:connector-curvature="0" />
    <path
       style="stroke-width:0.23189487"
       d="m 100.16788,159.75495 c 1.1702,-0.70343 1.8138,-1.8172 1.40423,-2.46201 L 87.64682,134.43138 c -0.351058,-0.64482 -1.57976,-0.5862 -2.749953,0.0586 -1.170193,0.70343 -1.755289,1.8172 -1.404231,2.46201 l 13.925294,22.92018 c 0.351058,0.5862 1.63827,0.5862 2.74995,-0.11724 z"
       transform="matrix(0.06676,0,0,0.06664,-2.44527,-0.20036)"
       id="path18"
       inkscape:connector-curvature="0" />
    <g
       style="stroke-width:0.30985954"
       id="g20">
      <path
         d="m 231.69756,47.147096 c -5.03183,2.579253 -45.46199,-10.66873 -45.46199,-10.66873 0,0 10.3562,34.819921 12.52106,44.492121 2.22337,9.73082 2.22337,24.151193 2.22337,24.151193 -0.29255,6.56537 -2.80847,8.44119 -7.8403,14.12727 -5.03182,5.62746 -11.5849,4.68955 -14.74442,4.04474 -3.10102,-0.58619 -37.62171,-8.73429 -47.97791,-11.60664 -10.35621,-2.81373 -21.64857,-0.2931 -25.68573,2.52063 -4.09568,2.81374 -6.260536,10.66873 -6.260536,10.66873 -5.382887,22.92019 17.201836,68.99503 17.201836,68.99503 -1.87231,4.98265 -8.13284,10.02392 -8.13284,10.02392 0,0 -23.520878,-61.49175 -13.808277,-80.60167 9.712597,-19.10992 25.744247,-18.81682 32.648377,-18.81682 6.90414,0 50.43531,12.83764 57.69051,12.54455 7.19669,-0.2931 11.87746,3.16544 8.13284,-17.527204 -3.74462,-20.692647 -12.52106,-48.302382 -13.51573,-54.867754 -0.93615,-6.565373 2.86698,-10.375634 2.86698,-10.375634 0,0 4.68077,-5.920559 10.64875,-4.982648 5.96798,0.93791 31.65372,10.023917 40.72271,13.775558 1.75529,0.703433 0.46808,3.224067 -1.2287,4.103358 z"
         transform="matrix(0.06676,0,0,0.06664,-2.44527,-0.20036)"
         id="path22"
         inkscape:connector-curvature="0"
         style="stroke-width:0.30985954" />
      <path
         d="m 247.67069,62.505377 c -20.36135,12.192835 -35.39833,6.565373 -43.58968,5.920559 -8.13284,-0.644813 -33.17497,-11.899737 -39.20146,-12.837647 -5.90948,-0.937911 -10.64876,5.041268 -10.64876,5.041268 0,0 -3.74461,3.751641 -2.80846,10.317013 0.93615,6.565373 9.7126,34.17511 13.45722,54.86775 3.80312,20.69265 -0.87765,17.23411 -8.13284,17.58582 -7.19669,0.2931 -50.78637,-12.60317 -57.69051,-12.60317 -6.845628,0 -22.87727,-0.29309 -32.58987,18.87545 -9.712601,19.10992 2.515914,54.51604 2.515914,54.51604 0,0 16.909287,14.42037 15.329527,9.086 0,0 -18.430538,-39.15775 -13.16467,-62.07794 0,0 2.223366,-7.79638 6.260532,-10.66873 4.095675,-2.81373 15.388036,-5.33436 25.744247,-2.46201 10.3562,2.81373 44.81838,10.96183 47.9779,11.60664 3.10101,0.58619 9.7126,1.5241 14.74443,-4.10336 5.03183,-5.62746 7.48924,-7.50328 7.84029,-14.12727 0,0 0,-14.42037 -2.22336,-24.09257 -2.16486,-9.730824 -12.52107,-44.550746 -12.52107,-44.550746 0,0 38.03127,12.368693 42.00993,12.544551 7.84029,0.293097 22.58472,4.396455 34.46218,-2.520634 11.93596,-6.917089 12.22851,-10.317014 12.22851,-10.317014 z"
         transform="matrix(0.06676,0,0,0.06664,-2.44527,-0.20036)"
         id="path24"
         inkscape:connector-curvature="0"
         style="stroke-width:0.30985954" />
    </g>
    <path
       style="stroke-width:0.30586132"
       d="m 144.05011,146.33111 c 0.93616,-0.93791 0.99467,-2.46201 0.0585,-3.39992 l -32.99943,-33.00272 c -0.93616,-0.93791 -2.45741,-0.87929 -3.39356,0.0586 -0.99467,0.93791 -0.99467,2.46201 -0.0585,3.39992 l 32.99944,33.00272 c 0.93615,0.93791 2.4574,0.93791 3.39355,-0.0586 z"
       transform="matrix(0.06676,0,0,0.06664,-2.44527,-0.20036)"
       id="path26"
       inkscape:connector-curvature="0" />
    <path
       style="stroke-width:0.32385316"
       d="m 158.502,147.62074 c 0.93615,-0.99653 0.87764,-2.57925 -0.17553,-3.6344 l -36.9781,-36.98884 c -1.05317,-1.05515 -2.69144,-1.11377 -3.62759,-0.17586 -0.93616,0.99653 -0.87765,2.57925 0.17552,3.6344 l 36.9781,36.98884 c 1.05317,1.05515 2.69144,1.11377 3.6276,0.17586 z"
       transform="matrix(0.06676,0,0,0.06664,-2.44527,-0.20036)"
       id="path28"
       inkscape:connector-curvature="0" />
    <path
       style="stroke-width:0.24888717"
       d="m 124.39088,141.23123 c 0.87764,-1.05515 0.99466,-2.28616 0.35105,-2.87235 L 101.10404,118.4869 c -0.70212,-0.52757 -1.93082,-0.11724 -2.749955,0.87929 -0.877645,1.05515 -1.053174,2.34478 -0.409568,2.87235 l 23.637893,19.87198 c 0.70212,0.58619 1.93082,0.17585 2.80847,-0.87929 z"
       transform="matrix(0.06676,0,0,0.06664,-2.44527,-0.20036)"
       id="path30"
       inkscape:connector-curvature="0" />
    <path
       style="stroke-width:0.30985954"
       d="m 232.80924,72.353436 c 0.93616,-0.93791 0.93616,-2.520634 0,-3.458544 L 198.93216,35.0715 c -0.93615,-0.99653 -2.51592,-0.99653 -3.45207,0 -0.93615,0.93791 -0.93615,2.462015 0,3.399925 l 33.87708,33.882011 c 0.93616,0.93791 2.51592,0.93791 3.45207,0 z"
       transform="matrix(0.06676,0,0,0.06664,-2.44527,-0.20036)"
       id="path32"
       inkscape:connector-curvature="0" />
    <path
       style="stroke-width:0.29586589"
       d="m 213.91063,74.229257 c 1.05317,-0.820672 1.28721,-2.227537 0.58509,-3.224067 L 187.58129,36.419746 c -0.76063,-0.93791 -2.22337,-1.055149 -3.27654,-0.234477 -1.05317,0.820671 -1.28721,2.286156 -0.52659,3.224066 l 26.85593,34.585444 c 0.76062,0.99653 2.22336,1.113768 3.27654,0.234478 z"
       transform="matrix(0.06676,0,0,0.06664,-2.44527,-0.20036)"
       id="path34"
       inkscape:connector-curvature="0" />
  </g>
</svg>

<svg width="16" xmlns="http://www.w3.org/2000/svg" height="16" viewBox="0 0 16 16" xmlns:xlink="http://www.w3.org/1999/xlink">
<g style="fill:#d68b85;stroke:#d68b85">
<path style="stroke-width:.31" d="M 110.758129 199.205809 C 111.577264 198.09204 111.343225 196.567936 110.231542 195.805884 L 71.32263 167.903051 C 70.269456 167.08238 68.689696 167.316857 67.929071 168.430626 C 67.168445 169.544394 67.402484 171.068499 68.514167 171.830551 L 107.423079 199.733383 C 108.476253 200.554055 109.997504 200.319577 110.758129 199.205809 Z " transform="matrix(.06676 0 0 .06664 -2.44527 -.20036)"/>
<path style="stroke-width:.301" d="M 104.907165 182.323423 C 105.901829 181.385512 106.018848 179.920028 105.141203 178.982117 L 74.072583 146.038017 C 73.194939 145.100106 71.732197 145.100106 70.737534 146.038017 C 69.74287 146.917308 69.68436 148.441412 70.562005 149.379322 L 101.572115 182.323423 C 102.44976 183.261333 103.97101 183.261333 104.907165 182.323423 Z " transform="matrix(.06676 0 0 .06664 -2.44527 -.20036)"/>
<path style="stroke-width:.31" d="M 195.772639 99.611455 C 196.767303 98.673545 196.767303 97.14944 195.772639 96.21153 L 161.954066 62.329519 C 160.959402 61.391609 159.438151 61.391609 158.501997 62.329519 C 157.565843 63.26743 157.565843 64.850153 158.501997 65.788064 L 192.37908 99.611455 C 193.315234 100.607985 194.836485 100.607985 195.772639 99.611455 Z " transform="matrix(.06676 0 0 .06664 -2.44527 -.20036)"/>
<path style="stroke-width:.304" d="M 193.841821 116.904177 C 194.836485 116.024886 194.894995 114.500782 194.01735 113.504252 L 162.422143 79.973957 C 161.544499 79.036047 160.081757 79.036047 159.028584 79.973957 C 158.09243 80.853248 158.03392 82.377353 158.911565 83.315263 L 190.506772 116.904177 C 191.384416 117.842087 192.847157 117.842087 193.841821 116.904177 Z " transform="matrix(.06676 0 0 .06664 -2.44527 -.20036)"/>
<path style="stroke-width:.249" d="M 176.874025 119.366191 C 178.044218 118.662759 178.570804 117.490371 178.102727 116.728319 L 161.36897 90.759926 C 160.959402 90.056493 159.61368 90.056493 158.501997 90.759926 C 157.331804 91.521978 156.805217 92.694366 157.273295 93.397799 L 174.007052 119.366191 C 174.47513 120.128244 175.762342 120.128244 176.874025 119.366191 Z " transform="matrix(.06676 0 0 .06664 -2.44527 -.20036)"/>
<path style="stroke-width:.295" d="M 166.16676 140.87951 C 167.102915 139.88298 167.219934 138.417495 166.342289 137.596824 L 135.741746 106.997499 C 134.922611 106.118208 133.401361 106.176827 132.465206 107.173357 C 131.529052 108.111267 131.412033 109.576752 132.289677 110.456043 L 162.89022 141.055368 C 163.767865 141.87604 165.230606 141.81742 166.16676 140.87951 Z " transform="matrix(.06676 0 0 .06664 -2.44527 -.20036)"/>
<path style="stroke-width:.232" d="M 100.167884 159.754955 C 101.338077 159.051523 101.981683 157.937754 101.572115 157.292941 L 87.64682 134.431376 C 87.295762 133.786563 86.06706 133.845182 84.896867 134.489996 C 83.726674 135.193428 83.141578 136.307197 83.492636 136.95201 L 97.41793 159.872194 C 97.768988 160.458388 99.0562 160.458388 100.167884 159.754955 Z " transform="matrix(.06676 0 0 .06664 -2.44527 -.20036)"/>
<g style="stroke-width:.31">
<path d="M 231.69756 47.147096 C 226.665731 49.726349 186.235568 36.478366 186.235568 36.478366 C 186.235568 36.478366 196.591774 71.298287 198.756631 80.970487 C 200.979998 90.701307 200.979998 105.121678 200.979998 105.121678 C 200.687449 111.687051 198.171535 113.562871 193.139705 119.248953 C 188.107876 124.876415 181.554796 123.938504 178.395276 123.293691 C 175.294264 122.707497 140.773575 114.559401 130.417369 111.687051 C 120.061162 108.87332 108.768801 111.393954 104.731636 114.207685 C 100.635961 117.021416 98.471104 124.876415 98.471104 124.876415 C 93.088217 147.796599 115.672939 193.871444 115.672939 193.871444 C 113.80063 198.854092 107.540099 203.89536 107.540099 203.89536 C 107.540099 203.89536 84.019222 142.403614 93.731823 123.293691 C 103.444424 104.183768 119.476066 104.476865 126.380203 104.476865 C 133.284341 104.476865 176.815515 117.314513 184.070711 117.021416 C 191.267397 116.728319 195.948168 120.186863 192.203551 99.494216 C 188.458934 78.801569 179.682488 51.191834 178.687824 44.626462 C 177.751669 38.061089 181.554796 34.250828 181.554796 34.250828 C 181.554796 34.250828 186.235568 28.330269 192.203551 29.26818 C 198.171535 30.20609 223.857268 39.292097 232.926262 43.043738 C 234.681552 43.747171 233.394339 46.267805 231.69756 47.147096 Z " transform="matrix(.06676 0 0 .06664 -2.44527 -.20036)"/>
<path d="M 247.670692 62.505377 C 227.309337 74.698212 212.272358 69.07075 204.081009 68.425936 C 195.948168 67.781123 170.906041 56.526199 164.879548 55.588289 C 158.970074 54.650378 154.230793 60.629557 154.230793 60.629557 C 154.230793 60.629557 150.486176 64.381198 151.42233 70.94657 C 152.358485 77.511943 161.134931 105.121678 164.879548 125.814325 C 168.682675 146.506972 164.001904 143.048427 156.746708 143.400144 C 149.550022 143.693241 105.960338 130.796974 99.0562 130.796974 C 92.210572 130.796974 76.17893 130.503877 66.46633 149.672419 C 56.753729 168.782342 68.982244 204.188457 68.982244 204.188457 C 68.982244 204.188457 85.891531 218.608829 84.311771 213.274464 C 84.311771 213.274464 65.881233 174.116707 71.147101 151.196523 C 71.147101 151.196523 73.370467 143.400144 77.407633 140.527793 C 81.503308 137.714062 92.795669 135.193428 103.151875 138.065779 C 113.508082 140.87951 147.970261 149.027606 151.129782 149.672419 C 154.230793 150.258613 160.842383 151.196523 165.874212 145.569061 C 170.906041 139.941599 173.363446 138.065779 173.714504 131.441787 C 173.714504 131.441787 173.714504 117.021416 171.491138 107.349215 C 169.326281 97.618396 158.970074 62.798474 158.970074 62.798474 C 158.970074 62.798474 197.001342 75.167167 200.979998 75.343025 C 208.82029 75.636122 223.564719 79.73948 235.442177 72.822391 C 247.378144 65.905302 247.670692 62.505377 247.670692 62.505377 Z " transform="matrix(.06676 0 0 .06664 -2.44527 -.20036)"/>
</g>
<path style="stroke-width:.306" d="M 144.050115 146.331114 C 144.98627 145.393203 145.044779 143.869099 144.108625 142.931189 L 111.109187 109.928469 C 110.173033 108.990558 108.651782 109.049178 107.715628 109.987088 C 106.720964 110.924998 106.720964 112.449103 107.657118 113.387013 L 140.656556 146.389733 C 141.59271 147.327643 143.113961 147.327643 144.050115 146.331114 Z " transform="matrix(.06676 0 0 .06664 -2.44527 -.20036)"/>
<path style="stroke-width:.324" d="M 158.501997 147.62074 C 159.438151 146.624211 159.379642 145.041487 158.326468 143.986338 L 121.348374 106.997499 C 120.295201 105.94235 118.656931 105.88373 117.720776 106.821641 C 116.784622 107.81817 116.843132 109.400894 117.896305 110.456043 L 154.874399 147.444882 C 155.927573 148.500031 157.565843 148.558651 158.501997 147.62074 Z " transform="matrix(.06676 0 0 .06664 -2.44527 -.20036)"/>
<path style="stroke-width:.249" d="M 124.390876 141.231226 C 125.26852 140.176077 125.38554 138.94507 124.741933 138.358876 L 101.104038 118.486901 C 100.401922 117.959326 99.17322 118.369662 98.354085 119.366191 C 97.47644 120.421341 97.300911 121.710967 97.944517 122.238542 L 121.582413 142.110517 C 122.284528 142.696711 123.513231 142.286375 124.390876 141.231226 Z " transform="matrix(.06676 0 0 .06664 -2.44527 -.20036)"/>
<path style="stroke-width:.31" d="M 232.809243 72.353436 C 233.745397 71.415526 233.745397 69.832802 232.809243 68.894892 L 198.93216 35.0715 C 197.996006 34.07497 196.416245 34.07497 195.480091 35.0715 C 194.543937 36.00941 194.543937 37.533515 195.480091 38.471425 L 229.357174 72.353436 C 230.293328 73.291346 231.873089 73.291346 232.809243 72.353436 Z " transform="matrix(.06676 0 0 .06664 -2.44527 -.20036)"/>
<path style="stroke-width:.296" d="M 213.910628 74.229257 C 214.963802 73.408585 215.197841 72.00172 214.495725 71.00519 L 187.581289 36.419746 C 186.820664 35.481836 185.357923 35.364597 184.304749 36.185269 C 183.251576 37.00594 183.017537 38.471425 183.778163 39.409335 L 210.634088 73.994779 C 211.394714 74.991309 212.857455 75.108547 213.910628 74.229257 Z " transform="matrix(.06676 0 0 .06664 -2.44527 -.20036)"/>
</g>
</svg>
